!!!COM:	Bach, Johann Sebastian
!!!CDT:	1685/02/21/-1750/07/28/
!!!OTL@@DE:	Liebster Immanuel, Herzog der Frommen
!!!SCT:	BWV 123/16
!!!PC#:	194
!!!AGN:	chorale
**kern	**kern	**kern	**kern
*ICvox	*ICvox	*ICvox	*ICvox
*Ibass	*Itenor	*Ialto	*Isoprn
*I"Bass	*I"Tenor	*I"Alto	*I"Soprano
*clefF4	*clefGv2	*clefG2	*clefG2
*k[f#c#]	*k[f#c#]	*k[f#c#]	*k[f#c#]
*b:	*b:	*b:	*b:
*M3/2	*M3/2	*M3/2	*M3/2
*MM100	*MM100	*MM100	*MM100
=1-	=1-	=1-	=1-
2BB	2B	2f#	2dd
4B	2B	2f#	2dd
4A	.	.	.
4G#	4B	4e#	2dd
4F#	4A	4f#	.
=2	=2	=2	=2
2E#	2G#	2g#	2.cc#
2C#	2c#	2e#	.
.	.	.	4b
2F#	2c#	2f#	2a
=3	=3	=3	=3
2BB	2d	2gn	2b
2C#	4en	2en	2g
.	4A	.	.
2D	2A	2d	4f#
.	.	.	4e
=4	=4	=4	=4
2A	2.A	2d	1e
2AA	.	2c#	.
.	4G	.	.
2D;	2F#;	2A;	2d;
=5	=5	=5	=5
2F#	2A	2d	2a
2C#	2A	2e	2a
2D	2A	2d	2f#
=6	=6	=6	=6
2G	4G	2d	2.b
.	4A	.	.
2E	2B	2g	.
.	.	.	4cc#
2BB	2B	2f#	2dd
=7	=7	=7	=7
2GG	2B	2f#	4d
.	.	.	4e
2GG	2B	4e	2.e
.	.	4d	.
2G	2e	4c#	.
.	.	4B	4f#
=8	=8	=8	=8
1.c#;	1.f#;	1.F#;	1.A#;
=9:|!	=9:|!	=9:|!	=9:|!
2BB	2B	2d	2f#
2D	2B	2d	2f#
2E	2B	2d	2g
=10	=10	=10	=10
2C#	2A	2e	2a
1D;	1A;	1d;	1f#;
=11	=11	=11	=11
2D	2B	2f#	2b
2C#	2c#	2e	2a#
2BB	2d	2f#	2b
=12	=12	=12	=12
2F#	2A#	2f#	2cc#
1F#;	1c#;	1a#;	1f#;
=13	=13	=13	=13
2B	2B	2f#	2dd
2E	2A#	2g	2cc#
2G	2B	2e	2b
=14	=14	=14	=14
2F#	2.c#	2.f#	2.a#
2E	.	.	.
.	4c#	4f#	4f#
2D	2B	2f#	2b
=15	=15	=15	=15
2E	4e	2g	4cc#
.	4d	.	4dd
2F#	2c#	2f#	2.a#
2FF#	2c#	2f#	.
.	.	.	4b
=16	=16	=16	=16
1.BB;	1.d#;	1.f#;	1.b;
==	==	==	==
*-	*-	*-	*-
!!!hum2abc: -Q ''
!!!title: @{PC#}. @{OTL@@DE}
!!!YOR1: 371 vierstimmige Choralges&auml;nge von Johann Sebastian Bach, 
!!!YOR2: 4th ed. by Alfred D&ouml;rffel (Leipzig: Breitkopf und H&auml;rtel, 
!!!YOR2: c.1875). 178 pp. Plate "V.A.10".  reprint: J.S. Bach, 371 Four-Part 
!!!YOR4: Chorales (New York: Associated Music Publishers, Inc., c.1940).
!!!SMS: B&H, 4th ed, Alfred D&ouml;rffel, c.1875, plate V.A.10
!!!EED:  Craig Stuart Sapp
!!!EEV:  2009/05/22
